public/img/hand_meal.svg

<svg width="101" height="100" viewBox="0 0 101 100" fill="none" xmlns="http://www.w3.org/2000/svg">
<mask id="mask0_189_2121" style="mask-type:alpha" maskUnits="userSpaceOnUse" x="0" y="0" width="101" height="100">
<rect x="0.5" width="100" height="100" fill="#D9D9D9"/>
</mask>
<g mask="url(#mask0_189_2121)">
<path d="M4.66675 54.1667V45.8333H13.1042C14.0765 37.0139 17.6529 29.5139 23.8334 23.3333C30.014 17.1528 37.514 13.5764 46.3334 12.6042V8.33333H54.6667V12.6042C63.4862 13.5764 70.9862 17.1528 77.1667 23.3333C83.3473 29.5139 86.9237 37.0139 87.8959 45.8333H96.3334V54.1667H4.66675ZM21.6459 45.8333H79.3542C78.382 38.6806 75.1702 32.7257 69.7188 27.9687C64.2674 23.2118 57.8612 20.8333 50.5001 20.8333C43.139 20.8333 36.7327 23.2118 31.2813 27.9687C25.8299 32.7257 22.6181 38.6806 21.6459 45.8333ZM60.3959 54.1667H33.8334V79.1667H56.9584C58.4167 79.1667 59.823 78.9236 61.1772 78.4375C62.5313 77.9514 63.764 77.2222 64.8751 76.25L82.1667 61.9792C81.6112 61.4236 80.9862 61.0069 80.2917 60.7292C79.5973 60.4514 78.8681 60.2431 78.1042 60.1042C76.9237 59.8958 75.7779 59.9306 74.6668 60.2083C73.5556 60.4861 72.514 61.0069 71.5418 61.7708L60.2917 70.8333H42.1667V62.5H57.3751L61.9584 58.75C62.3056 58.5417 62.5661 58.2639 62.7397 57.9167C62.9133 57.5694 63.0001 57.1875 63.0001 56.7708C63.0001 56.0764 62.7397 55.4687 62.2188 54.9479C61.698 54.4271 61.0904 54.1667 60.3959 54.1667ZM25.5001 54.1667H17.1667V83.3333H25.5001V54.1667ZM25.5001 91.6667H17.1667C14.8751 91.6667 12.9133 90.8507 11.2813 89.2188C9.64939 87.5868 8.83341 85.625 8.83341 83.3333V54.1667C8.83341 51.875 9.64939 49.9132 11.2813 48.2813C12.9133 46.6493 14.8751 45.8333 17.1667 45.8333H60.3959C66.2987 45.8333 71.9931 46.8403 77.4792 48.8542C82.9654 50.8681 87.3751 54.2708 90.7084 59.0625L93.5209 63.3333L70.2917 82.7083C68.4167 84.3056 66.3334 85.5035 64.0417 86.3021C61.7501 87.1007 59.389 87.5 56.9584 87.5H32.6876C31.9237 88.75 30.9167 89.7569 29.6667 90.5208C28.4167 91.2847 27.0279 91.6667 25.5001 91.6667Z" fill="#33B148"/>
</g>
</svg>

<svg xmlns="http://www.w3.org/2000/svg" width="101" height="100" fill="none"><mask id="a" width="101" height="100" x="0" y="0" maskUnits="userSpaceOnUse" style="mask-type:alpha"><path fill="#D9D9D9" d="M.5 0h100v100H.5z"/></mask><g mask="url(#a)"><path fill="#33B148" d="M4.667 54.167v-8.334h8.437q1.459-13.23 10.73-22.5 9.27-9.27 22.5-10.729v-4.27h8.333v4.27q13.23 1.458 22.5 10.73 9.27 9.27 10.729 22.5h8.437v8.333zm16.979-8.334h57.708Q77.896 35.105 69.72 27.97 61.54 20.833 50.5 20.833T31.281 27.97q-8.177 7.136-9.635 17.864m38.75 8.334H33.833v25h23.125q2.188 0 4.22-.73a11.5 11.5 0 0 0 3.697-2.187l17.292-14.27a5.55 5.55 0 0 0-1.875-1.25 11.3 11.3 0 0 0-2.188-.626 8.2 8.2 0 0 0-3.437.104q-1.667.417-3.125 1.563l-11.25 9.062H42.167V62.5h15.208l4.583-3.75q.522-.312.782-.833.26-.522.26-1.146 0-1.042-.781-1.823-.782-.78-1.823-.781m-34.896 0h-8.333v29.166H25.5zm0 37.5h-8.333q-3.438 0-5.886-2.448t-2.448-5.886V54.167q0-3.438 2.448-5.886t5.886-2.448h43.229q8.854 0 17.083 3.021t13.23 10.209l2.812 4.27-23.23 19.375a19.4 19.4 0 0 1-6.25 3.594 21.4 21.4 0 0 1-7.083 1.198h-24.27a9 9 0 0 1-3.021 3.02q-1.876 1.147-4.167 1.147"/></g></svg>
